static/assets/img/logos/product/google-drive.svg

<svg fill="none" height="48" viewBox="0 0 48 48" width="48" xmlns="http://www.w3.org/2000/svg"><path d="m8.00049 45 7.99941-14h32.0001l-8.0001 14z" fill="#3777e3"/><path d="m32.0005 31h15.9995l-15.9995-28h-16.0006z" fill="#ffcf63"/><path d="m0 31 8.00049 14 15.99951-28-8.0001-14z" fill="#11a861"/></svg>

<svg width="48" height="48" viewBox="0 0 48 48" fill="none" xmlns="http://www.w3.org/2000/svg">
<path d="M8.00049 45L15.9999 31H48L39.9999 45H8.00049Z" fill="#3777E3"/>
<path d="M32.0005 31H48L32.0005 3H15.9999L32.0005 31Z" fill="#FFCF63"/>
<path d="M0 31L8.00049 45L24 17L15.9999 3L0 31Z" fill="#11A861"/>
</svg>
